!!!COM: Palestrina, Giovanni Perluigi da
!!!OPR: Aeterna Christi munera
!!!OTL: Agnus I
**kern	**kern	**kern	**kern
*Ibass	*Itenor	*Icalto	*Icant
!Bassus	!Tenor	!Altus	!Cantus
*clefF4	*clefGv2	*clefG2	*clefG2
*k[b-]	*k[b-]	*k[b-]	*k[b-]
*F:ion	*F:ion	*F:ion	*F:ion
*M4/2	*M4/2	*M4/2	*M4/2
=1	=1	=1	=1
1r	0r	1c	0r
1F	.	1c	.
=2	=2	=2	=2
1F	0r	1d	0r
1G	.	[1e	.
=3	=3	=3	=3
1A	0r	2e]	0r
.	.	2c	.
2F	.	2d	.
2G	.	2e	.
=4	=4	=4	=4
2A	0r	2.f	1r
1B-	.	.	.
.	.	4e	.
.	.	2d	1f
2A	.	2c	.
=5	=5	=5	=5
2.B-	1B-	2d	1f
.	.	1f	.
4A	.	.	.
1G	1B-	.	1g
.	.	2e	.
=6	=6	=6	=6
1F	1c	1f	1.a
2r	1d	2.f	.
[2B-	.	.	2f
.	.	4e-	.
=7	=7	=7	=7
2B-]	2B-	2d	2g
2A	2c	2c	2a
2G	2d	2B-	2.b-
4E-	[2e-	4G	.
4F	.	4A	4a
=8	=8	=8	=8
4G	2e-]	4B-	2g
4A	.	4c	.
2B-	2d	2d	2f
1E-	2c	2.e-	1g
.	[2B-	.	.
.	.	4d	.
=9	=9	=9	=9
1F	2B-]	1c	0f
.	2A	.	.
[1BB-	2B-	1d	.
.	2B-	.	.
=10	=10	=10	=10
0BB-]	2d	2r	1r
.	2d	2B-	.
.	2.f	2d	2r
.	.	2d	2f
.	4e-	.	.
=11	=11	=11	=11
0r	4d	1f	2a
.	4c	.	.
.	2d	.	2b-
.	2c	2e	1cc
.	2A	2a	.
=12	=12	=12	=12
0r	2B-	4g	2dd
.	.	4f	.
.	2F	1f	2a
.	1G	.	1b-
.	.	2e	.
=13	=13	=13	=13
2r	1F	1.a	1.cc
2F	.	.	.
2A	1r	.	.
2B-	.	4g	4b-
.	.	4f	4a
=14	=14	=14	=14
1c	0r	1e	2.g
.	.	.	4a
2d	.	2f	4b-
.	.	.	4a
2A	.	2a	2cc
=15	=15	=15	=15
1B-	0r	2g	2.b-
.	.	1f	.
.	.	.	4a
2.c	.	.	2g
.	.	2e	2cc
4B-	.	.	.
=16	=16	=16	=16
4A	1F	1f	4cc
4G	.	.	4b-
4F	.	.	4a
4E	.	.	4g
2D	2A	2r	4f
.	.	.	4e
2G	2B-	2g	2d
=17	=17	=17	=17
1C	1c	2e	2c
.	.	2g	2cc
1r	2d	2f	2a
.	2A	2e	2cc
=18	=18	=18	=18
0r	1B-	2d	2b-
.	.	1f	2a
.	1c	.	2g
.	.	2e	2g
=19	=19	=19	=19
1F	2r	1f	2.a
.	1f	.	.
.	.	.	4b-
2.A	.	2r	2cc
.	[2e	2c	2a
4B-	.	.	.
=20	=20	=20	=20
2c	2e]	2e	2g
2A	2c	2f	2cc
1G	1d	1g	2b
.	.	.	[2dd
=21	=21	=21	=21
2F	2f	2a	4dd]
.	.	.	4cc
2C	2.g	2e	1cc
1D	.	1f	.
.	4f	.	.
.	[2f	.	2b
=22	=22	=22	=22
0C	2f]	2g	1cc
.	4e	1g	.
.	4d	.	.
.	2e	.	2r
.	2e	2g	[2cc
=23	=23	=23	=23
0r	1f	2.a	2cc]
.	.	.	2cc
.	.	4g	.
.	1r	2f	2.dd
.	.	2e	.
.	.	.	4cc
=24	=24	=24	=24
0r	0r	4d	2b-
.	.	4e	.
.	.	4f	2a
.	.	4d	.
.	.	4e	4g
.	.	4f	4a
.	.	2g	4b-
.	.	.	4g
=25	=25	=25	=25
1r	0r	2f	4a
.	.	.	4b-
.	.	2e	1cc
[1G	.	[1d	.
.	.	.	4b-
.	.	.	4a
=26	=26	=26	=26
2G]	1r	1d]	4b-
.	.	.	4a
2G	.	.	4g
.	.	.	4f
2.A	2r	1c	2e
.	[2c	.	[2a
4G	.	.	.
=27	=27	=27	=27
2F	2c]	1r	2a]
2E	2c	.	2g
2D	2.d	2r	1f
[2d	.	[2f	.
.	4c	.	.
=28	=28	=28	=28
2d]	2B-	2f]	0r
2c	2A	2f	.
2B	2G	2.g	.
[2c	[2g	.	.
.	.	4f	.
=29	=29	=29	=29
4c]	2g]	2e	1r
4G	.	.	.
2B-	2.f	2d	.
2A	.	2c	2r
.	4e	.	.
2F	2a	[2f	[2cc
=30	=30	=30	=30
1c	1g	2f]	2cc]
.	.	2e	2cc
1r	2f	2.d	2.dd
.	4B-	.	.
.	4c	4e	4cc
=31	=31	=31	=31
1r	4d	1f	2b-
.	4e	.	.
.	1f	.	2a
[1C	.	2c	1g
.	4e	2g	.
.	4d	.	.
=32	=32	=32	=32
2C]	2e	2g	2.cc
2C	2e	1a	.
.	.	.	4b-
2.D	2.f	.	4a
.	.	.	4g
.	.	2d	[2f
4C	4e	.	.
=33	=33	=33	=33
2BB-	2d	2.f	4f]
.	.	.	4g
2AA	2c	.	2a
.	.	4e	.
1BB-	2.B-	1d	2g
.	.	.	2f
.	4A	.	.
=34	=34	=34	=34
0C	2G	0c	2e
.	2F	.	1f
.	1G	.	.
.	.	.	2e
=35	=35	=35	=35
0F	0F	0c	0f
==	==	==	==
*-	*-	*-	*-
!!!CDT: 1525/^1526/-1594/2/2
!!!OCY: Italia
!!!AGN: Mass (Paraphrase)
!!!AST: renaissance, vocal
!!!ASW: Hymn
!!!PWK: Masses, Book 5
!!!RNB: Cadence finals: C
!!!YOR: Le Opere Complete, v. 15, p. 1
!!!YOO: Rome, Italy: Fratelli Scalera
!!!END: 1992//
!!!EED: John Miller
!!!YEC: Copyright 2000, John Miller
!!!YEN: United States of America
!!!YEM: Rights to all derivative electronic formats reserved.
!!!YEM: Refer to licensing agreement for further details.
!!!YEM: This file must be accompanied by the licensing agreement.
!!!YEM: A copy of the licensing agreement may be found at http://www.music-cog.ohio-state.edu/HumdrumDatabases/Palestrina/license.txt
!!!EMD: converted to Humdrum by Bret Aarden
